X:1312
T:Ladies' Fancy
P:Peggie's Wedding
C:Bremner, here from Gow
R:Jig (8x32)
B:RSCDS 13-12
Z:Anselm Lingnau <anselm@strathspey.org>
M:6/8
L:1/8
K:C
G|"C"c>dc "(Em/B)"c2c|"Am"ceg "C/G"gec|"F"c>dc "C/E"c2c|"Dm"Bcd "G7"dBG|
  "C"c>dc "(Em/B)"c2c|"Am"ceg "C/G"gec|"F"faf "C"ege|"G7"B>cd dBG||
  "C"c>dc g2c|e2c g2c|c>dc g2c|"G"B>cd "G7"dBG|
  "C"c>dc "C/B"gec|"Am"edc "C/G"gec|"Am"faf "G"ege| "G7"B>cd dB|]
